img/services/05.svg

<svg width="36" height="33" viewBox="0 0 36 33" fill="none" xmlns="http://www.w3.org/2000/svg">
<path d="M26.6798 4.95473C26.1228 5.53409 25.8191 6.31066 25.8355 7.1136C25.8697 8.78564 27.2549 10.1134 28.9294 10.0793C29.7335 10.0629 30.4981 9.72819 31.0551 9.14883L35.0855 4.95657C35.8824 6.53889 36.1685 8.32901 35.9043 10.0804C35.6401 11.8318 34.8387 13.4584 33.6103 14.7361C32.3819 16.0138 30.7871 16.8798 29.0454 17.2149C27.3036 17.55 25.5007 17.3376 23.8849 16.6071C21.7516 15.0192 20.8051 14.0993 19.5095 12.413C18.7126 10.8307 18.4265 9.04055 18.6907 7.28914C18.9549 5.53774 19.7564 3.91119 20.9847 2.63348C22.2131 1.35578 23.808 0.489758 25.5497 0.154678C27.2914 -0.180403 29.0943 0.0319378 30.7102 0.76246L26.6798 4.95473Z" fill="white"/>
<path d="M11.6158 20.7865L16.0138 24.9566L9.48457 31.8827C8.92759 32.462 8.16293 32.7967 7.35881 32.8131C6.5547 32.8295 5.77699 32.5263 5.19678 31.9701C4.61658 31.4139 4.2814 30.6504 4.26498 29.8474C4.24856 29.0445 4.55225 28.2679 5.10923 27.6886L11.6158 20.7865Z" fill="white"/>
<path d="M17.1656 13.3031L31.4581 26.8549C32.8708 28.1944 32.946 30.4181 31.6269 31.8497C30.2781 33.3136 27.99 33.3907 26.5454 32.021L12.2529 18.4692C11.0889 17.3655 10.8329 15.6618 11.5166 14.2953L4.88164 7.89912L3.65128 9.1289L0 4.21036L2.25829 1.7162L7.53806 5.24396L6.31768 6.46376L12.9038 12.8128C14.2384 12.0304 15.9841 12.1828 17.1656 13.3031Z" fill="white"/>
</svg>

<svg width="36" height="33" viewBox="0 0 36 33" fill="none" xmlns="http://www.w3.org/2000/svg"><path d="M26.68 4.955a3.026 3.026 0 002.25 5.124 3.035 3.035 0 002.125-.93l4.03-4.192a8.554 8.554 0 01-1.475 9.78 8.581 8.581 0 01-9.725 1.87c-2.133-1.588-3.08-2.508-4.376-4.194a8.554 8.554 0 011.476-9.78A8.581 8.581 0 0130.71.763l-4.03 4.192zM11.616 20.787l4.398 4.17-6.53 6.926a3.035 3.035 0 01-5.219-2.036 3.026 3.026 0 01.844-2.158l6.507-6.902zm5.55-7.484l14.292 13.552a3.558 3.558 0 01.169 4.995 3.57 3.57 0 01-5.082.171L12.253 18.469a3.56 3.56 0 01-.736-4.174L4.882 7.9l-1.23 1.23L0 4.21l2.258-2.494 5.28 3.528-1.22 1.22 6.586 6.349a3.573 3.573 0 014.262.49z" fill="#fff"/></svg>
